X: 1
T: Miss Rattray
M: 4/4
L: 1/8
R: reel
K: Dmaj
d2 AG FDDF|GEEA FDDA|d2  AG FDDg|fdec d2 dA:|
defg affa|beed cAAc|defg affa|beec d2 AB|
defg affa|beed cAAc|BGGB FDDg|fdec d2 dA||
